X:1
T:Amicus Meus
T:Victoria
T:Amicus Meus
T:Copyright © 2014 by CPDL.  This edition can be fully distributed, duplicated, performed, and recorded 
T:Copyright © 2014 by CPDL.  This edition can be fully distributed, duplicated, performed, and recorded 
T:Copyright © 2014 by CPDL.  This edition can be fully distributed, duplicated, performed, and recorded 
T:Copyright © 2014 by CPDL.  This edition can be fully distributed, duplicated, performed, and recorded 
T:Copyright © 2014 by CPDL.  This edition can be fully distributed, duplicated, performed, and recorded 
C:Victoria
Z:Copyright © 2014 by CPDL.  This edition can be fully distributed, duplicated, performed, and recorded
%%score [ 1 2 3 4 ]
L:1/8
Q:1/2=80
M:4/2
K:C
V:1 treble nm="Soprano" snm="S."
V:2 treble nm="Alto" snm="A."
V:3 treble-8 transpose=-12 nm="Tenor" snm="T."
V:4 bass nm="Bass" snm="B."
V:1
"^Holy Thursday Tenebrae:  The sign by which my friend betrayed me was a kiss:He whom I kiss, that is he: hold him fast.He who committed murder by a kiss gave this wicked sign.The unhappy wretch repaid the price of blood and in the end hanged himself.It had been better for that man if he had never been born." D16 | %1
w: A-|
 F12 F4 | (G4 A8 G4) | A8 F8- | F4 F4 F8 | z4 E4 E8 | G4 G4 A8 | ^G8 z8 | z16 | z8 z4 A4- | %10
w: mi- cus|me- * *|us os-|* cu- li|me tra-|di- dit si-|gno:||i-|
 A4 A4 A8 | z4 A4 (A6 GF | E4) ^F4 G8 | ^F8 z8 | z4 A4 A4 G4 | A4 E4 =F8 | D4 F6 F2 F4 | %17
w: * pse est|te- ne- * *|* te e-|um:|hoc ma- lum|fe- cit si-|gnum, qui per os-|
 E4 ^F4 G4 A4 | B4 c6 B2 A4- | A4 ^G2 ^F2 G8 | A4 E8 F4 | (E4 D8) ^C4 | D16 ||S D16 | F8 E8 | %25
w: cu- lum ad im-|ple- * * *||vit, ho- mi-|ci- * di-|um.|In-|fe- lix|
 G12 F4 | F8 E4 E4- | E4 E4 E8 | F8 G8 | A4 A8 A4 | _B8 A4 A4- | A4 A4 A8 | A8 G8 | %33
w: prae- ter-|mi- sit prae-|* ti- um|san- gui-|nis, et in|fi- ne la-|* que- o|se sus-|
 F6 E2 F2 G2 A4- | A4 G2 F2 G8 | A8 z8!fine! |] z8 A8- | A8 E8 | G12 ^F4 | (G4 A4 G8) | %40
w: pen- * * * *||dit.|Bo-|* num|e- rat|e- * *|
 F4 A4 A4 A4 | F4 D4 E8 | D4 (G8 F2 E2 | D4) E4 F4 G4- | G4 F4 E8 | D16!D.S.! |] %46
w: i, si na- tus|non fu- is-|set ho- * *|* mo il- *||le.|
V:2
 z8 D8- | D8 D8 | C8 _B,8 | A,4 D8 D4 | D8 z4 A,4 | C12 C4 | D4 (E8 D4) | E16- | E8 z8 | z4 E8 E4 | %10
w: A-|* mi-|cus me-|us os- cu-|li me|tra- di-|dit si- *|gno:|_|i- pse|
 E8 z4 E4 | (F6 ED C4) D4 | (E4 D8 ^C4) | D4 D4 E4 E4 | =F4 C4 D8 | E8 z4 D4- | D4 D4 D8 | %17
w: est te-|ne- * * * te|e- * *|um: hoc ma- lum|fe- cit si-|gnum, qui|_ per os-|
 ^C4 D4 E4 E4 | (E6 D2 C4 D4 | E8) D4 E4- | (E2 D2 C2 B,2 A,4) F,4 | _B,8 A,8 | A,16 || z8 A,8- | %24
w: cu- lum ad im-|ple- * * *|* vit, ho-|* * * * * mi-|ci- di-|um.|In-|
 A,8 C8 | B,8 D8- | D4 C4 C8 | B,4 C8 C4 | C4 D8 D4 | E4 F4 E8 | G8 E4 F4- | F4 F4 F4 F4- | %32
w: * fe-|lix prae-|* ter- mi-|sit prae- ti-|um san- gui-|nis, et in|fi- ne la-|* que- o se|
 F4 C4 E8 | D4 D4 A,8 | D16 | E8 z8 |] D16 | A,8 C8- | C4 B,4 C4 D4 | E2 C2 F8 E4 | F8 z4 D4 | %41
w: _ sus- pen-|dit, se sus-|pen-|dit.|Bo-|num e-|* rat e- *||i, si|
 D4 D4 C4 A,4 | _B,8 A,4 D4- | (D4 C2 =B,2 A,4) B,4 | (C4 D8 ^C4) | D16 |] %46
w: na- tus non fu-|is- set ho-|* * * * mo|il- * *|le.|
V:3
 z16 | z16 | z16 | z8 A8- | A4 A4 A8 | z4 A4 c8 | B4 c4 A8 | B4 B4 c6 c2 | c4 B4 c4 A4 | B8 c8- | %10
w: |||os-|* cu- li|me tra-|di- dit si-|gno: quem os- cu-|la- tus fu- e-|ro, i-|
 c4 c4 c4 A4 | d6 cB A6 B2 | c4 A4 G8 | A16 | z8 z4 d4 | d4 ^c4 d4 A4 | _B4 A4 z4 A4- | %17
w: * pse est te-|ne- * * * *|* te e-|um:|hoc|ma- lum fe- cit|si- gnum, qui|
 A2 A2 A4 c4 c4 | G4 G4 A6 =B2 | c4 B2 A2 B8 | A4 A8 A4 | G8 E8 | D16 || z8 D8- | D8 A8 | G8 _B8- | %26
w: _ per os- cu- lum|ad im- ple- *||vit, ho- mi-|ci- di-|um.|In-|* fe-|lix prae-|
 B4 A4 A8 | ^G4 A8 A4 | A4 _B8 B4 | A4 d8 ^c4 | d8 ^c4 d4- | d4 d4 d8 | c12 G4 | _B4 A4 z4 A4 | %34
w: * ter- mi-|sit prae- ti-|um san- gui-|nis, et in|fi- ne la-|* que- o|se sus-|pen- dit, se|
 D8 d8- | d4 ^c4 z8 |] z16 | z16 | z16 | z16 | z16 | z16 | z16 | z16 | z16 | z16 |] %46
w: sus- pen-|* dit.|||||||||||
V:4
 z16 | z16 | z16 | z8 D,8- | D,4 D,4 D,8 | z4 A,,4 A,8 | G,4 E,4 F,8 | E,4 E,4 A,6 A,2 | %8
w: |||os-|* cu- li|me tra-|di- dit si-|gno: quem os- cu-|
 A,4 ^G,4 A,4 F,4 | E,8 A,8- | A,4 A,4 A,8 | z4 D,4 (F,6 E,D, | C,4) D,4 E,8 | D,4 D,4 D,4 ^C,4 | %14
w: la- tus fu- e-|ro, i-|* pse est|te- ne- * *|* te e-|um: hoc ma- lum|
 D,4 A,,4 _B,,8 | A,,8 z4 D,4- | D,4 D,4 D,8 | A,,4 D,4 C,4 A,,4 | (E,4 C,4 F,8) | E,8 z4 E,4 | %20
w: fe- cit si-|gnum, qui|_ per os-|cu- lum ad im-|ple- * *|vit, ho-|
 (A,,6 B,,2 ^C,4 D,4) | G,,8 A,,8 | D,16 || z16 | z16 | z16 | z16 | z16 | z16 | z4 D,4 A,8 | %30
w: mi- * * *|ci- di-|um.|||||||et in|
 G,8 A,4 D,4- | D,4 D,4 D,8 | F,8 C,8 | (D,12 C,4 | _B,,16) | A,,8 z8 |] z16 | z16 | z16 | z16 | %40
w: fi- ne la-|* que- o|se sus-|pen- *||dit.|||||
 z16 | z16 | z16 | z16 | z16 | z16 |] %46
w: ||||||

